svgs/light/dagger.svg

<svg xmlns="http://www.w3.org/2000/svg" viewBox="0 0 384 512"><!--! Font Awesome Pro 6.6.0 by @fontawesome - https://fontawesome.com License - https://fontawesome.com/license (Commercial License) Copyright 2024 Fonticons, Inc. --><path d="M208 16c0-8.8-7.2-16-16-16s-16 7.2-16 16l0 112-32 0-32 0-32 0-32 0c-26.5 0-48 21.5-48 48s21.5 48 48 48s48-21.5 48-48l0-16 16 0 32 0 48 0 48 0 32 0 16 0 0 16c0 26.5 21.5 48 48 48s48-21.5 48-48s-21.5-48-48-48l-32 0-32 0-32 0-32 0 0-112zM48 160l16 0 0 16c0 8.8-7.2 16-16 16s-16-7.2-16-16s7.2-16 16-16zm272 0l16 0c8.8 0 16 7.2 16 16s-7.2 16-16 16s-16-7.2-16-16l0-16zM240 397.9c0 4.9-1.5 9.7-4.3 13.8L192 474.1l-43.7-62.4c-2.8-4-4.3-8.8-4.3-13.8L144 192l-32 0 0 205.9c0 11.5 3.5 22.7 10.1 32.1l50.2 71.7c4.5 6.4 11.8 10.2 19.7 10.2s15.2-3.8 19.7-10.2L261.9 430c6.6-9.4 10.1-20.6 10.1-32.1L272 192l-32 0 0 205.9z"/></svg>

<svg xmlns="http://www.w3.org/2000/svg" viewBox="0 0 384 512"><!--! Font Awesome Pro 6.4.2 by @fontawesome - https://fontawesome.com License - https://fontawesome.com/license (Commercial License) Copyright 2023 Fonticons, Inc. --><path d="M208 16c0-8.8-7.2-16-16-16s-16 7.2-16 16V128H144 112 80 48c-26.5 0-48 21.5-48 48s21.5 48 48 48s48-21.5 48-48V160h16 32 48 48 32 16v16c0 26.5 21.5 48 48 48s48-21.5 48-48s-21.5-48-48-48H304 272 240 208V16zM48 160H64v16c0 8.8-7.2 16-16 16s-16-7.2-16-16s7.2-16 16-16zm272 0h16c8.8 0 16 7.2 16 16s-7.2 16-16 16s-16-7.2-16-16V160zM240 397.9c0 4.9-1.5 9.7-4.3 13.8L192 474.1l-43.7-62.4c-2.8-4-4.3-8.8-4.3-13.8V192H112V397.9c0 11.5 3.5 22.7 10.1 32.1l50.2 71.7c4.5 6.4 11.8 10.2 19.7 10.2s15.2-3.8 19.7-10.2L261.9 430c6.6-9.4 10.1-20.6 10.1-32.1V192H240V397.9z"/></svg>
